lib/brands/icons/angular.svg

<svg xmlns="http://www.w3.org/2000/svg" fill="none" aria-hidden="true" viewBox="0 0 48 48"><g id="angular-Icon"><g id="angular"><path id="vector" fill="#DD0031" d="M24 3L4.5 10.5L7.5 36L24 45L40.5 36L43.5 10.5L24 3Z"/><path id="vector_2" fill="#C3002F" d="M24 3V45L40.5 36L43.5 10.5L24 3Z"/><path id="vector_3" fill="white" d="M23.9997 7.64099L11.8096 35.046H16.3547L18.8053 28.914H29.1522L31.6028 35.046H36.1479L23.9997 7.64099ZM27.5604 25.134H20.439L23.9997 16.545L27.5604 25.134Z"/></g></g></svg>

<svg xmlns="http://www.w3.org/2000/svg" fill="none" aria-hidden="true" viewBox="0 0 48 48"><path fill="#DD0031" d="M24 3 4.5 10.5l3 25.5L24 45l16.5-9 3-25.5L24 3Z"/><path fill="#C3002F" d="M24 3v42l16.5-9 3-25.5L24 3Z"/><path fill="#fff" d="M24 7.641 11.81 35.046h4.545l2.45-6.132h10.347l2.45 6.132h4.546L24 7.641Zm3.56 17.493h-7.12L24 16.545l3.561 8.589Z"/></svg>
